symbolic/48x48/apps/mx-updater.svg

<svg xmlns="http://www.w3.org/2000/svg" width="48" height="48" version="1.1">
 <path style="fill:#60d938" d="M 7.9995,23.001 V 33 L 24,41 38,37 V 23.001 L 42,13.001 26,7.0018 22,19.001 Z"/>
 <path style="opacity:0.2;fill:none;stroke:#000000;stroke-width:4;stroke-linecap:round;stroke-linejoin:round" d="M 22,18.001 7.9995,22.001 M 24,28.001 7.9995,22.001 V 22.001 M 38,24.001 22,18.001 26,8.0018 42,14.001 Z M 24,42 38,38 V 24.001 L 24,28.001 M 24,42 V 28.001 L 7.9995,22.001 V 34 Z"/>
 <path style="fill:none;stroke:#dfdfdf;stroke-width:4;stroke-linecap:round;stroke-linejoin:round" d="M 22,17.001 7.9995,21.001 M 24,27.001 7.9995,21.001 V 21.001 M 38,23.001 22,17.001 26,7.0018 42,13.001 Z M 24,41 38,37 V 23.001 L 24,27.001 M 24,41 V 27.001 L 7.9995,21.001 V 33 Z"/>
 <path style="opacity:0.2;fill:#dfdfdf" d="M 25.917,5.0019 A 1.9999,1.9998 0 0 0 24.143,6.2558 L 20.507,15.345 7.6557,19.017 A 1.9999,1.9998 0 0 0 6.0151,20.595 1.9999,1.9998 0 0 0 5.9917,20.743 1.9999,1.9998 0 0 0 5.9799,20.86 1.9999,1.9998 0 0 0 5.9761,20.927 1.9999,1.9998 0 0 0 5.9761,21.091 1.9999,1.9998 0 0 0 5.9761,21.103 1.9999,1.9998 0 0 0 5.9917,21.279 1.9999,1.9998 0 0 0 5.9955,21.299 1.9999,1.9998 0 0 0 5.9995,21.313 1.9999,1.9998 0 0 0 5.9995,21.317 V 21.697 A 1.9999,1.9998 0 0 1 6.0151,21.591 1.9999,1.9998 0 0 1 7.6557,20.013 L 20.507,16.341 24.143,7.2518 A 1.9999,1.9998 0 0 1 25.917,5.9979 1.9999,1.9998 0 0 1 26.704,6.1228 L 42.704,12.122 A 1.9999,1.9998 0 0 1 43.933,13.497 1.9999,1.9998 0 0 0 42.704,11.126 L 26.704,5.1269 A 1.9999,1.9998 0 0 0 25.917,5.0019 Z M 39.039,15.021 36.871,20.438 24.96,15.97 24.614,16.837 36.871,21.435 39.386,15.15 Z M 15.886,21.821 14.378,22.251 24.085,25.891 31.621,23.735 30.114,23.169 24.085,24.895 Z M 9.9995,31.762 V 32.758 L 22,38.758 V 37.762 Z M 36,35.488 26,38.344 V 39.34 L 36,36.484 Z"/>
 <path style="fill:#60d938" d="M 24,27.001 22,15.001 5.9995,9.0017 7.9995,21.001 Z"/>
 <path style="opacity:0.2" d="M 5.9175,8.0033 A 2.0002,2.0001 0 0 0 4.0269,10.331 L 6.0269,22.331 A 2.0002,2.0001 0 0 0 7.2963,23.873 L 23.295,29.873 A 2.0002,2.0001 0 0 0 25.972,27.675 L 23.972,15.675 A 2.0002,2.0001 0 0 0 22.704,14.132 L 6.7027,8.1321 A 2.0002,2.0001 0 0 0 5.9175,8.0033 Z M 8.5425,13.093 20.218,17.471 21.457,24.917 9.7807,20.538 Z"/>
 <path style="fill:none;stroke:#b2bfd9;stroke-width:4;stroke-linecap:round;stroke-linejoin:round" d="M 7.9995,21.001 24,27.001 22,15.001 5.9995,9.0017 Z"/>
 <path style="opacity:0.2;fill:#f4f4f7" d="M 5.9175,7.0018 A 2.0002,2.0001 0 0 0 4.0269,9.3299 L 4.0581,9.5173 A 2.0002,2.0001 0 0 1 5.9175,8.0017 2.0002,2.0001 0 0 1 6.7027,8.1307 L 22.704,14.13 A 2.0002,2.0001 0 0 1 23.972,15.673 L 25.942,27.473 A 2.0002,2.0001 0 0 0 25.972,26.673 L 23.972,14.673 A 2.0002,2.0001 0 0 0 22.704,13.13 L 6.7027,7.1308 A 2.0002,2.0001 0 0 0 5.9175,7.0018 Z M 8.5425,13.091 9.7807,20.536 21.457,24.915 21.281,23.849 9.7807,19.536 8.7183,13.158 Z"/>
</svg>

<svg xmlns="http://www.w3.org/2000/svg" width="48" height="48"><path style="fill:#60d938" d="M8 23.001V33l16 8 14-4V23.001l4-10-16-6-4 12z"/><path style="opacity:.2;fill:none;stroke:#000;stroke-width:4;stroke-linecap:round;stroke-linejoin:round" d="m22 18.001-14 4m16 6-16-6v0m30 2-16-6 4-10 16 6zM24 42l14-4V24.001l-14 4M24 42V28.001l-16-6V34z"/><path style="fill:none;stroke:#dfdfdf;stroke-width:4;stroke-linecap:round;stroke-linejoin:round" d="m22 17.001-14 4m16 6-16-6v0m30 2-16-6 4-10 16 6zM24 41l14-4V23.001l-14 4M24 41V27.001l-16-6V33z"/><path style="opacity:.2;fill:#dfdfdf" d="M25.917 5.002a2 2 0 0 0-1.774 1.254l-3.636 9.089-12.851 3.672a2 2 0 0 0-1.64 1.578 2 2 0 0 0-.024.148 2 2 0 0 0-.012.117 2 2 0 0 0-.004.067 2 2 0 0 0 0 .164 2 2 0 0 0 0 .012 2 2 0 0 0 .016.176 2 2 0 0 0 .003.02 2 2 0 0 0 .005.014 2 2 0 0 0 0 .004v.38a2 2 0 0 1 .015-.106 2 2 0 0 1 1.64-1.578l12.852-3.672 3.636-9.09a2 2 0 0 1 1.774-1.253 2 2 0 0 1 .787.125l16 5.999a2 2 0 0 1 1.229 1.375 2 2 0 0 0-1.229-2.371l-16-6a2 2 0 0 0-.787-.124zM39.039 15.02l-2.168 5.417L24.96 15.97l-.346.867 12.257 4.598 2.515-6.285zm-23.153 6.8-1.508.43 9.707 3.64 7.536-2.156-1.507-.566-6.029 1.726zM10 31.762v.996l12 6v-.996zm26 3.726-10 2.856v.996l10-2.856z"/><path style="fill:#60d938" d="m24 27.001-2-12-16-6 2 12z"/><path style="opacity:.2" d="M5.918 8.003a2 2 0 0 0-1.891 2.328l2 12a2 2 0 0 0 1.27 1.542l15.998 6a2 2 0 0 0 2.677-2.198l-2-12a2 2 0 0 0-1.268-1.543l-16.001-6a2 2 0 0 0-.785-.129zm2.625 5.09 11.675 4.378 1.239 7.446-11.676-4.379z"/><path style="fill:none;stroke:#b2bfd9;stroke-width:4;stroke-linecap:round;stroke-linejoin:round" d="m8 21.001 16 6-2-12-16-6z"/><path style="opacity:.2;fill:#f4f4f7" d="M5.918 7.002A2 2 0 0 0 4.027 9.33l.031.187a2 2 0 0 1 1.86-1.515 2 2 0 0 1 .785.129l16.001 5.999a2 2 0 0 1 1.268 1.543l1.97 11.8a2 2 0 0 0 .03-.8l-2-12a2 2 0 0 0-1.268-1.543l-16.001-6a2 2 0 0 0-.785-.128zm2.625 6.089 1.238 7.445 11.676 4.379-.176-1.066-11.5-4.313-1.063-6.378z"/></svg>
